X:1
T:Ascot, SMD
T:Ascot, SMD
T:Peter Philip Bilhorn, 1891
T:Public Domain Courtesy of the Cyber Hymnal™
C:Peter Philip Bilhorn, 1891
Z:Public Domain
Z:Courtesy of the Cyber Hymnal™
%%score ( 1 2 ) 3
L:1/8
Q:1/4=107
M:6/8
K:F
V:1 treble 
V:2 treble 
V:3 bass 
V:1
 C | C2 [CF] [CF]2 [CG] | [FA]3- [FA]2 [CG] | [CF]2 [CF] [CF]2 [FA] | [Fc]3- [Fc]2 [Fc] | %5
 [Fd]2 [Fd] [Fc]2 [FA] | [Fc]2 [EB] [FA]2 [DG] | [CF] [FA]2 [EG]2 [CF] | [CF]3- [CF]2 C | %9
 C [CF]2 [CF]2 [CG] | [FA]4 z [CF] | [FA] [FA]2 [FA]2 [FB] | [Fc]4 z [Fc] | [Fd]2 [Fd] [Fc]2 [FA] | %14
 [Fc]2 [EB] [FA]2 [DG] | [CF] [FA]2 !fermata![EG]2 [CF] | [CF]3- [CF]2 |] %17
V:2
 C | C2 x4 | x6 | x6 | x6 | x6 | x6 | x6 | x5 C | C x5 | x6 | x6 | x6 | x6 | x6 | x6 | x5 |] %17
V:3
 [F,A,] | [F,A,]2 [F,A,] [F,A,]2 [F,B,] | [F,C]3- [F,C]2 [F,B,] | [F,A,]2 [F,A,] [F,A,]2 [F,C] | %4
 [F,A,]3- [F,A,]2 [F,A,] | [B,,B,]2 [B,,B,] [F,A,]2 [F,C] | [F,A,]2 [G,,C] [A,,C]2 [B,,B,] | %7
 [C,A,] [C,C]2 [C,B,]2 [F,A,] | [F,A,]3- [F,A,]2 [F,A,] | [F,A,] [F,A,]2 [F,A,]2 [F,B,] | %10
 [F,C]4 z [F,A,] | [F,C] [F,C]2 [F,C]2 [F,G,] | [F,A,]4 z [F,A,] | [B,,B,]2 [B,,B,] [F,A,]2 [F,C] | %14
 [F,A,]2 [G,,C] [A,,C]2 [B,,B,] | [C,A,] [C,C]2 !fermata![C,B,]2 [F,A,] | [F,,F,A,]3- [F,,F,A,]2 |] %17

